public/careers/Travel.svg

<svg width="45" height="45" viewBox="0 0 45 45" fill="none" xmlns="http://www.w3.org/2000/svg">
<circle cx="22.5" cy="22.5" r="22.5" fill="#BFBFFF" fill-opacity="0.3"/>
<path d="M30.6431 18.5394L27.4883 21.5017L30.4883 29.7517L28.2383 32.0017L23.7563 25.4412L21.4883 27.5017V29.7517L19.2383 32.0017L17.9077 28.0779L13.9883 26.7517L16.2383 24.5017H18.4883L20.7383 22.2517L13.9883 17.7517L16.2383 15.5017L24.4883 18.5017L27.4611 15.3575L27.3973 15.4108C27.6061 15.2015 27.8542 15.0354 28.1273 14.922C28.4004 14.8086 28.6931 14.7502 28.9888 14.75C29.2845 14.7498 29.5773 14.808 29.8505 14.921C30.1237 15.0341 30.3719 15.1999 30.581 15.409C30.7901 15.6181 30.9559 15.8663 31.069 16.1395C31.1821 16.4127 31.2402 16.7056 31.24 17.0012C31.2399 17.2969 31.1814 17.5897 31.068 17.8628C30.9547 18.1358 30.7886 18.3839 30.5793 18.5927L30.6431 18.5394Z" stroke="#6B59ED" stroke-width="1.5" stroke-linecap="round" stroke-linejoin="round"/>
</svg>

<svg width="45" height="45" fill="none" xmlns="http://www.w3.org/2000/svg"><circle cx="22.5" cy="22.5" r="22.5" fill="#BFBFFF" fill-opacity=".3"/><path d="m30.643 18.54-3.155 2.962 3 8.25-2.25 2.25-4.482-6.56-2.268 2.06v2.25l-2.25 2.25-1.33-3.924-3.92-1.326 2.25-2.25h2.25l2.25-2.25-6.75-4.5 2.25-2.25 8.25 3 2.973-3.144-.064.053a2.25 2.25 0 1 1 3.182 3.182l.064-.054Z" stroke="#6B59ED" stroke-width="1.5" stroke-linecap="round" stroke-linejoin="round"/></svg>
